human-male-board.svg

<svg fill="currentColor" viewBox="0 0 24 24"><path d="M20 17a2 2 0 0 0 2-2V4a2 2 0 0 0-2-2H9.46c.35.61.54 1.3.54 2h10v11h-9v2m4-10v2H9v13H7v-6H5v6H3v-8H1.5V9a2 2 0 0 1 2-2zM8 4a2 2 0 0 1-2 2 2 2 0 0 1-2-2 2 2 0 0 1 2-2 2 2 0 0 1 2 2"/></svg>

<svg  viewBox="0 0 24 24" fill="currentColor"><path  d="M20,17A2,2 0 0,0 22,15V4A2,2 0 0,0 20,2H9.46C9.81,2.61 10,3.3 10,4H20V15H11V17M15,7V9H9V22H7V16H5V22H3V14H1.5V9A2,2 0 0,1 3.5,7H15M8,4A2,2 0 0,1 6,6A2,2 0 0,1 4,4A2,2 0 0,1 6,2A2,2 0 0,1 8,4Z"/></svg>
